images/icons/v2/info-outline-24.svg

<svg height="24" viewBox="0 0 24 24" width="24" xmlns="http://www.w3.org/2000/svg"><path d="m12 2.5a9.5 9.5 0 1 1 -9.5 9.5 9.511 9.511 0 0 1 9.5-9.5m0-1.5a11 11 0 1 0 11 11 11 11 0 0 0 -11-11zm0 7.5a1.5 1.5 0 0 0 1.5-1.5 1.5 1.5 0 1 0 -2.56 1.06 1.435 1.435 0 0 0 1.06.44zm1 8v-6.5h-3.5v1.5h2v5h-2.5v1.5h6v-1.5z"/></svg>

<svg xmlns="http://www.w3.org/2000/svg" width="24" height="24" viewBox="0 0 24 24"><title>info-outline-24</title><path d="M12,2.5A9.5,9.5,0,1,1,2.5,12,9.511,9.511,0,0,1,12,2.5M12,1A11,11,0,1,0,23,12,11,11,0,0,0,12,1Zm0,7.5A1.5,1.5,0,0,0,13.5,7a1.5,1.5,0,1,0-2.56,1.06A1.435,1.435,0,0,0,12,8.5Zm1,8V10H9.5v1.5h2v5H9V18h6V16.5Z"/></svg>
